src/shared/assets/user.svg

<svg width="24" height="24" viewBox="0 0 24 24" fill="none" xmlns="http://www.w3.org/2000/svg">
<g clip-path="url(#clip0_6_176)">
<path d="M17.4805 5.75391C16.5195 3.54297 14.3164 2 11.75 2C9.18359 2 6.98047 3.54297 6.01953 5.75391C5.37891 5.80859 4.875 6.34375 4.875 7V9.5C4.875 10.1562 5.37891 10.6914 6.01953 10.7461C6.98047 12.957 9.18359 14.5 11.75 14.5C14.3164 14.5 16.5195 12.957 17.4805 10.7461C18.1211 10.6914 18.625 10.1562 18.625 9.5V7C18.625 6.34375 18.1211 5.80859 17.4805 5.75391ZM16.125 7.625V8.25C16.125 10.3203 14.4453 12 12.375 12H11.125C9.05469 12 7.375 10.3203 7.375 8.25V7.625C7.375 6.58984 8.21484 5.75 9.25 5.75H14.25C15.2852 5.75 16.125 6.58984 16.125 7.625ZM10.3945 8.35547L10.1602 7.52734C10.125 7.39844 10.0078 7.3125 9.875 7.3125C9.74219 7.3125 9.625 7.39844 9.58984 7.52734L9.35547 8.35547L8.52734 8.58984C8.39844 8.625 8.3125 8.74219 8.3125 8.875C8.3125 9.00781 8.39844 9.125 8.52734 9.16016L9.35547 9.39453L9.58984 10.2227C9.625 10.3516 9.74219 10.4375 9.875 10.4375C10.0078 10.4375 10.125 10.3516 10.1602 10.2227L10.3945 9.39453L11.2227 9.16016C11.3516 9.125 11.4375 9.00781 11.4375 8.875C11.4375 8.74219 11.3516 8.625 11.2227 8.58984L10.3945 8.35547ZM7.40234 14.3633C4.82422 15.3828 3 17.8984 3 20.8398C3 21.4805 3.51953 22 4.16016 22H8V19.5C8 18.8086 8.55859 18.25 9.25 18.25H14.25C14.9414 18.25 15.5 18.8086 15.5 19.5V22H19.3398C19.9805 22 20.5 21.4805 20.5 20.8398C20.5 17.8984 18.6758 15.3828 16.0977 14.3633C14.8711 15.2344 13.3711 15.75 11.75 15.75C10.1289 15.75 8.62891 15.2344 7.40234 14.3633ZM9.875 19.5C9.53125 19.5 9.25 19.7812 9.25 20.125V22H10.5V20.125C10.5 19.7812 10.2188 19.5 9.875 19.5ZM13.625 20.75C13.7908 20.75 13.9497 20.6842 14.0669 20.5669C14.1842 20.4497 14.25 20.2908 14.25 20.125C14.25 19.9592 14.1842 19.8003 14.0669 19.6831C13.9497 19.5658 13.7908 19.5 13.625 19.5C13.4592 19.5 13.3003 19.5658 13.1831 19.6831C13.0658 19.8003 13 19.9592 13 20.125C13 20.2908 13.0658 20.4497 13.1831 20.5669C13.3003 20.6842 13.4592 20.75 13.625 20.75Z" fill="white"/>
</g>
<defs>
<clipPath id="clip0_6_176">
<rect width="17.5" height="20" fill="white" transform="translate(3 2)"/>
</clipPath>
</defs>
</svg>

<svg xmlns="http://www.w3.org/2000/svg" fill="currentColor" viewBox="0 0 24 24">
  <g clip-path="url(#a)">
    <path fill="#fff" d="M17.48 5.754A6.243 6.243 0 0 0 11.75 2a6.243 6.243 0 0 0-5.73 3.754A1.25 1.25 0 0 0 4.875 7v2.5a1.25 1.25 0 0 0 1.145 1.246 6.243 6.243 0 0 0 5.73 3.754 6.243 6.243 0 0 0 5.73-3.754A1.25 1.25 0 0 0 18.625 9.5V7a1.25 1.25 0 0 0-1.145-1.246Zm-1.355 1.871v.625c0 2.07-1.68 3.75-3.75 3.75h-1.25c-2.07 0-3.75-1.68-3.75-3.75v-.625c0-1.035.84-1.875 1.875-1.875h5c1.035 0 1.875.84 1.875 1.875Zm-5.73.73-.235-.828a.293.293 0 0 0-.285-.215.293.293 0 0 0-.285.215l-.235.828-.828.235a.293.293 0 0 0-.214.285c0 .133.085.25.214.285l.828.235.235.828a.293.293 0 0 0 .285.214c.133 0 .25-.085.285-.214l.235-.828.828-.235a.293.293 0 0 0 .214-.285.293.293 0 0 0-.214-.285l-.829-.235Zm-2.993 6.008A6.964 6.964 0 0 0 3 20.84c0 .64.52 1.16 1.16 1.16H8v-2.5c0-.691.559-1.25 1.25-1.25h5c.691 0 1.25.559 1.25 1.25V22h3.84c.64 0 1.16-.52 1.16-1.16a6.964 6.964 0 0 0-4.402-6.477 7.485 7.485 0 0 1-4.348 1.387 7.484 7.484 0 0 1-4.348-1.387ZM9.875 19.5a.627.627 0 0 0-.625.625V22h1.25v-1.875a.627.627 0 0 0-.625-.625Zm3.75 1.25a.624.624 0 1 0 0-1.249.624.624 0 0 0 0 1.249Z"/>
  </g>
  <defs>
    <clipPath id="a">
      <path fill="#fff" d="M3 2h17.5v20H3z"/>
    </clipPath>
  </defs>
</svg>
